X: 39217
T: Ta Cashen Ersooyl Dys Yn 'Aarkey
R: slip jig
M: 9/8
K: Bminor
|:F|B2 c dcB cAF|BdB cA/B/c e2 f|B2 c dcB cAe|faf ec^A B2:|
|:A|d2 e fed cBA|dAd fd/e/f a2 b|d2 e fed cba|fBd cB^A B2:|

